src/pos-icons/eye-minus-outline.svg

<svg height="24" viewBox="0 0 24 24" width="24" xmlns="http://www.w3.org/2000/svg"><path d="m12 4.5a11.8 11.8 0 0 0 -11 7.5 11.8 11.8 0 0 0 11 7.5h1.1a3.8 3.8 0 0 1 -.1-1 4.1 4.1 0 0 1 .1-1.1h-1.1a9.6 9.6 0 0 1 -8.8-5.4 9.6 9.6 0 0 1 8.8-5.5 9.6 9.6 0 0 1 8.8 5.5l-.4.7a4.6 4.6 0 0 1 1.9.8 10.1 10.1 0 0 0 .7-1.5 11.8 11.8 0 0 0 -11-7.5m0 4.5a3 3 0 1 0 3 3 2.9 2.9 0 0 0 -3-3m3 8.5v2h8v-2z"/></svg>

<?xml version="1.0" encoding="UTF-8"?><!DOCTYPE svg PUBLIC "-//W3C//DTD SVG 1.1//EN" "http://www.w3.org/Graphics/SVG/1.1/DTD/svg11.dtd"><svg xmlns="http://www.w3.org/2000/svg" xmlns:xlink="http://www.w3.org/1999/xlink" version="1.1" id="mdi-eye-minus-outline" width="24" height="24" viewBox="0 0 24 24"><path d="M12 4.5A11.8 11.8 0 0 0 1 12A11.8 11.8 0 0 0 12 19.5H13.1A3.8 3.8 0 0 1 13 18.5A4.1 4.1 0 0 1 13.1 17.4H12A9.6 9.6 0 0 1 3.2 12A9.6 9.6 0 0 1 12 6.5A9.6 9.6 0 0 1 20.8 12L20.4 12.7A4.6 4.6 0 0 1 22.3 13.5A10.1 10.1 0 0 0 23 12A11.8 11.8 0 0 0 12 4.5M12 9A3 3 0 1 0 15 12A2.9 2.9 0 0 0 12 9M15 17.5V19.5H23V17.5Z" /></svg>
